X:272
T:Scartaglen Jig, The
R:jig
H:also played as a slide
Z:id:hn-jig-272
M:6/8
K:Amix
Aaa a^ga|Agg gfg|Aaa agf|efd edB|Aaa a^ga|Agg gfe|~f3 gfe|ded dcB||
Aaa a^ga|Agg gfg|Aaa agf|efd efg|agf gfe|fed edc|Bgg gfg|dBG Bcd||
|:cBA cee|dff cee|cBA cee|dff fed|cBA cee|dff cee|Bgg gfg|dBG Bcd:|

